icons/anvil.svg

<svg width="24" height="24" viewBox="0 0 24 24" fill="none" xmlns="http://www.w3.org/2000/svg">
<path d="M7 9C3.43816 9 2.30429 6.44882 2.01358 4.99112C1.90557 4.44956 2.46008 4 3.01086 4H7M7 4V8.59873C7 10.3394 8.8875 10.369 9.22884 11.8026C9.63137 13.493 10.0257 17 7.42857 17C5.75198 17 4 18.1958 4 20C4 20.6014 4.58399 21 5.14286 21C9.69024 20.3368 14.3098 20.3368 18.8571 21C19.416 21 20 20.6014 20 20C20 18.1958 18.248 17 16.5714 17C13.9877 17 14.3676 13.5272 14.7626 11.8389C14.8812 11.3318 15.3536 11.0108 15.8701 10.9443C19.2855 10.5045 22 7.51851 22 4C22 3.45533 21.5447 3 21 3H8C7.45534 3 7 3.45533 7 4Z" stroke="black" stroke-width="2" stroke-linecap="round" stroke-linejoin="round"/>
</svg>

<svg xmlns="http://www.w3.org/2000/svg" width="24" height="24" viewBox="0 0 24 24" fill="none" stroke="currentColor" stroke-width="2" stroke-linecap="round" stroke-linejoin="round">
<path d="M7 9C3.438 9 2.304 6.449 2.014 4.991 1.906 4.45 2.46 4 3.01 4H7m0 0v4.599c0 1.74 1.887 1.77 2.229 3.204.402 1.69.797 5.197-1.8 5.197C5.752 17 4 18.196 4 20c0 .601.584 1 1.143 1a47.5 47.5 0 0 1 13.714 0c.559 0 1.143-.399 1.143-1 0-1.804-1.752-3-3.429-3-2.583 0-2.203-3.473-1.808-5.161.118-.507.59-.828 1.107-.895C19.285 10.504 22 7.52 22 4c0-.545-.455-1-1-1H8c-.545 0-1 .455-1 1"/>
</svg>
